src/components/profile/CompanyLogo/svg/logo.svg

<?xml version="1.0" encoding="UTF-8"?>
<svg width="175px" height="175px" viewBox="0 0 175 175" version="1.1" xmlns="http://www.w3.org/2000/svg" xmlns:xlink="http://www.w3.org/1999/xlink">
    <!-- Generator: Sketch 44.1 (41455) - http://www.bohemiancoding.com/sketch -->
    <title>Logo</title>
    <desc>Created with Sketch.</desc>
    <defs>
        <rect id="path-1" x="0" y="0" width="175" height="175" rx="4"></rect>
    </defs>
    <g id="Interface" stroke="none" stroke-width="1" fill="none" fill-rule="evenodd">
        <g id="Company-Profile-Empty" transform="translate(-477.000000, -60.000000)">
            <g id="Logo" transform="translate(477.000000, 60.000000)">
                <mask id="mask-2" fill="white">
                    <use xlink:href="#path-1"></use>
                </mask>
                <use id="Mask" fill-opacity="0.50427423" fill="#EFEFEF" xlink:href="#path-1"></use>
                <g id="office-block" mask="url(#mask-2)" fill-rule="nonzero" fill="#DBDFE4" opacity="0.599298007">
                    <g transform="translate(50.000000, 50.000000)" id="Shape">
                        <path d="M73.3681319,18.5663265 L48.3791209,18.5663265 L48.3791209,1.51530612 C48.3791209,0.673469388 47.6538462,0 46.7472527,0 L1.76373626,0 C0.857142857,0 0.131868132,0.673469388 0.131868132,1.51530612 L0.131868132,73.4540816 C0.131868132,74.2959184 0.857142857,74.9693878 1.76373626,74.9693878 L46.7472527,74.9693878 L73.3681319,74.9693878 C74.2747253,74.9693878 75,74.2959184 75,73.4540816 L75,20.0816327 C75,19.2397959 74.2747253,18.5663265 73.3681319,18.5663265 Z M45.1153846,20.0816327 L45.1153846,71.9540816 L3.3956044,71.9540816 L3.3956044,3.03061224 L45.1153846,3.03061224 L45.1153846,20.0816327 L45.1153846,20.0816327 Z M71.7362637,71.9387755 L48.3791209,71.9387755 L48.3791209,21.5816327 L71.7362637,21.5816327 L71.7362637,71.9387755 Z"></path>
                        <path d="M54.7417582,29.2806122 L65.3736264,29.2806122 C66.2802198,29.2806122 67.0054945,28.6071429 67.0054945,27.7653061 C67.0054945,26.9234694 66.2802198,26.25 65.3736264,26.25 L54.7417582,26.25 C53.8351648,26.25 53.1098901,26.9234694 53.1098901,27.7653061 C53.1098901,28.5918367 53.8351648,29.2806122 54.7417582,29.2806122 Z"></path>
                        <path d="M54.7417582,36.8877551 L65.3736264,36.8877551 C66.2802198,36.8877551 67.0054945,36.2142857 67.0054945,35.372449 C67.0054945,34.5306122 66.2802198,33.8571429 65.3736264,33.8571429 L54.7417582,33.8571429 C53.8351648,33.8571429 53.1098901,34.5306122 53.1098901,35.372449 C53.1098901,36.2142857 53.8351648,36.8877551 54.7417582,36.8877551 Z"></path>
                        <path d="M54.7417582,44.4795918 L65.3736264,44.4795918 C66.2802198,44.4795918 67.0054945,43.8061224 67.0054945,42.9642857 C67.0054945,42.122449 66.2802198,41.4489796 65.3736264,41.4489796 L54.7417582,41.4489796 C53.8351648,41.4489796 53.1098901,42.122449 53.1098901,42.9642857 C53.1098901,43.8061224 53.8351648,44.4795918 54.7417582,44.4795918 Z"></path>
                        <path d="M54.7417582,52.0867347 L65.3736264,52.0867347 C66.2802198,52.0867347 67.0054945,51.4132653 67.0054945,50.5714286 C67.0054945,49.7295918 66.2802198,49.0561224 65.3736264,49.0561224 L54.7417582,49.0561224 C53.8351648,49.0561224 53.1098901,49.7295918 53.1098901,50.5714286 C53.1098901,51.4132653 53.8351648,52.0867347 54.7417582,52.0867347 Z"></path>
                        <path d="M54.7417582,59.6785714 L65.3736264,59.6785714 C66.2802198,59.6785714 67.0054945,59.005102 67.0054945,58.1632653 C67.0054945,57.3214286 66.2802198,56.6479592 65.3736264,56.6479592 L54.7417582,56.6479592 C53.8351648,56.6479592 53.1098901,57.3214286 53.1098901,58.1632653 C53.1098901,58.9897959 53.8351648,59.6785714 54.7417582,59.6785714 Z"></path>
                        <path d="M54.7417582,67.2857143 L65.3736264,67.2857143 C66.2802198,67.2857143 67.0054945,66.6122449 67.0054945,65.7704082 C67.0054945,64.9285714 66.2802198,64.255102 65.3736264,64.255102 L54.7417582,64.255102 C53.8351648,64.255102 53.1098901,64.9285714 53.1098901,65.7704082 C53.1098901,66.6122449 53.8351648,67.2857143 54.7417582,67.2857143 Z"></path>
                        <path d="M10.9615385,14.8469388 C11.8681319,14.8469388 12.5934066,14.1734694 12.5934066,13.3316327 L12.5934066,9.97959184 C12.5934066,9.1377551 11.8681319,8.46428571 10.9615385,8.46428571 C10.0549451,8.46428571 9.32967033,9.1377551 9.32967033,9.97959184 L9.32967033,13.3316327 C9.32967033,14.1734694 10.0549451,14.8469388 10.9615385,14.8469388 Z"></path>
                        <path d="M19.8296703,14.8469388 C20.7362637,14.8469388 21.4615385,14.1734694 21.4615385,13.3316327 L21.4615385,9.97959184 C21.4615385,9.1377551 20.7362637,8.46428571 19.8296703,8.46428571 C18.9230769,8.46428571 18.1978022,9.1377551 18.1978022,9.97959184 L18.1978022,13.3316327 C18.1978022,14.1734694 18.9230769,14.8469388 19.8296703,14.8469388 Z"></path>
                        <path d="M28.6813187,14.8469388 C29.5879121,14.8469388 30.3131868,14.1734694 30.3131868,13.3316327 L30.3131868,9.97959184 C30.3131868,9.1377551 29.5879121,8.46428571 28.6813187,8.46428571 C27.7747253,8.46428571 27.0494505,9.1377551 27.0494505,9.97959184 L27.0494505,13.3316327 C27.0494505,14.1734694 27.7912088,14.8469388 28.6813187,14.8469388 Z"></path>
                        <path d="M37.5494505,14.8469388 C38.456044,14.8469388 39.1813187,14.1734694 39.1813187,13.3316327 L39.1813187,9.97959184 C39.1813187,9.1377551 38.456044,8.46428571 37.5494505,8.46428571 C36.6428571,8.46428571 35.9175824,9.1377551 35.9175824,9.97959184 L35.9175824,13.3316327 C35.9175824,14.1734694 36.6428571,14.8469388 37.5494505,14.8469388 Z"></path>
                        <path d="M10.9615385,25.2244898 C11.8681319,25.2244898 12.5934066,24.5510204 12.5934066,23.7091837 L12.5934066,20.3418367 C12.5934066,19.5 11.8681319,18.8265306 10.9615385,18.8265306 C10.0549451,18.8265306 9.32967033,19.5 9.32967033,20.3418367 L9.32967033,23.7091837 C9.32967033,24.5357143 10.0549451,25.2244898 10.9615385,25.2244898 Z"></path>
                        <path d="M19.8296703,25.2244898 C20.7362637,25.2244898 21.4615385,24.5510204 21.4615385,23.7091837 L21.4615385,20.3418367 C21.4615385,19.5 20.7362637,18.8265306 19.8296703,18.8265306 C18.9230769,18.8265306 18.1978022,19.5 18.1978022,20.3418367 L18.1978022,23.7091837 C18.1978022,24.5357143 18.9230769,25.2244898 19.8296703,25.2244898 Z"></path>
                        <path d="M28.6813187,25.2244898 C29.5879121,25.2244898 30.3131868,24.5510204 30.3131868,23.7091837 L30.3131868,20.3418367 C30.3131868,19.5 29.5879121,18.8265306 28.6813187,18.8265306 C27.7747253,18.8265306 27.0494505,19.5 27.0494505,20.3418367 L27.0494505,23.7091837 C27.0494505,24.5357143 27.7912088,25.2244898 28.6813187,25.2244898 Z"></path>
                        <path d="M37.5494505,25.2244898 C38.456044,25.2244898 39.1813187,24.5510204 39.1813187,23.7091837 L39.1813187,20.3418367 C39.1813187,19.5 38.456044,18.8265306 37.5494505,18.8265306 C36.6428571,18.8265306 35.9175824,19.5 35.9175824,20.3418367 L35.9175824,23.7091837 C35.9175824,24.5357143 36.6428571,25.2244898 37.5494505,25.2244898 Z"></path>
                        <path d="M10.9615385,35.5867347 C11.8681319,35.5867347 12.5934066,34.9132653 12.5934066,34.0714286 L12.5934066,30.7193878 C12.5934066,29.877551 11.8681319,29.2040816 10.9615385,29.2040816 C10.0549451,29.2040816 9.32967033,29.877551 9.32967033,30.7193878 L9.32967033,34.0714286 C9.32967033,34.9132653 10.0549451,35.5867347 10.9615385,35.5867347 Z"></path>
                        <path d="M19.8296703,35.5867347 C20.7362637,35.5867347 21.4615385,34.9132653 21.4615385,34.0714286 L21.4615385,30.7193878 C21.4615385,29.877551 20.7362637,29.2040816 19.8296703,29.2040816 C18.9230769,29.2040816 18.1978022,29.877551 18.1978022,30.7193878 L18.1978022,34.0714286 C18.1978022,34.9132653 18.9230769,35.5867347 19.8296703,35.5867347 Z"></path>
                        <path d="M28.6813187,35.5867347 C29.5879121,35.5867347 30.3131868,34.9132653 30.3131868,34.0714286 L30.3131868,30.7193878 C30.3131868,29.877551 29.5879121,29.2040816 28.6813187,29.2040816 C27.7747253,29.2040816 27.0494505,29.877551 27.0494505,30.7193878 L27.0494505,34.0714286 C27.0494505,34.9132653 27.7912088,35.5867347 28.6813187,35.5867347 Z"></path>
                        <path d="M37.5494505,35.5867347 C38.456044,35.5867347 39.1813187,34.9132653 39.1813187,34.0714286 L39.1813187,30.7193878 C39.1813187,29.877551 38.456044,29.2040816 37.5494505,29.2040816 C36.6428571,29.2040816 35.9175824,29.877551 35.9175824,30.7193878 L35.9175824,34.0714286 C35.9175824,34.9132653 36.6428571,35.5867347 37.5494505,35.5867347 Z"></path>
                        <path d="M10.9615385,45.9642857 C11.8681319,45.9642857 12.5934066,45.2908163 12.5934066,44.4489796 L12.5934066,41.0969388 C12.5934066,40.255102 11.8681319,39.5816327 10.9615385,39.5816327 C10.0549451,39.5816327 9.32967033,40.255102 9.32967033,41.0969388 L9.32967033,44.4489796 C9.32967033,45.2755102 10.0549451,45.9642857 10.9615385,45.9642857 Z"></path>
                        <path d="M19.8296703,45.9642857 C20.7362637,45.9642857 21.4615385,45.2908163 21.4615385,44.4489796 L21.4615385,41.0969388 C21.4615385,40.255102 20.7362637,39.5816327 19.8296703,39.5816327 C18.9230769,39.5816327 18.1978022,40.255102 18.1978022,41.0969388 L18.1978022,44.4489796 C18.1978022,45.2755102 18.9230769,45.9642857 19.8296703,45.9642857 Z"></path>
                        <path d="M28.6813187,45.9642857 C29.5879121,45.9642857 30.3131868,45.2908163 30.3131868,44.4489796 L30.3131868,41.0969388 C30.3131868,40.255102 29.5879121,39.5816327 28.6813187,39.5816327 C27.7747253,39.5816327 27.0494505,40.255102 27.0494505,41.0969388 L27.0494505,44.4489796 C27.0494505,45.2755102 27.7912088,45.9642857 28.6813187,45.9642857 Z"></path>
                        <path d="M37.5494505,45.9642857 C38.456044,45.9642857 39.1813187,45.2908163 39.1813187,44.4489796 L39.1813187,41.0969388 C39.1813187,40.255102 38.456044,39.5816327 37.5494505,39.5816327 C36.6428571,39.5816327 35.9175824,40.255102 35.9175824,41.0969388 L35.9175824,44.4489796 C35.9175824,45.2755102 36.6428571,45.9642857 37.5494505,45.9642857 Z"></path>
                        <path d="M10.9615385,56.3265306 C11.8681319,56.3265306 12.5934066,55.6530612 12.5934066,54.8112245 L12.5934066,51.4591837 C12.5934066,50.6173469 11.8681319,49.9438776 10.9615385,49.9438776 C10.0549451,49.9438776 9.32967033,50.6173469 9.32967033,51.4591837 L9.32967033,54.8112245 C9.32967033,55.6530612 10.0549451,56.3265306 10.9615385,56.3265306 Z"></path>
                        <path d="M19.8296703,56.3265306 C20.7362637,56.3265306 21.4615385,55.6530612 21.4615385,54.8112245 L21.4615385,51.4591837 C21.4615385,50.6173469 20.7362637,49.9438776 19.8296703,49.9438776 C18.9230769,49.9438776 18.1978022,50.6173469 18.1978022,51.4591837 L18.1978022,54.8112245 C18.1978022,55.6530612 18.9230769,56.3265306 19.8296703,56.3265306 Z"></path>
                        <path d="M28.6813187,56.3265306 C29.5879121,56.3265306 30.3131868,55.6530612 30.3131868,54.8112245 L30.3131868,51.4591837 C30.3131868,50.6173469 29.5879121,49.9438776 28.6813187,49.9438776 C27.7747253,49.9438776 27.0494505,50.6173469 27.0494505,51.4591837 L27.0494505,54.8112245 C27.0494505,55.6530612 27.7912088,56.3265306 28.6813187,56.3265306 Z"></path>
                        <path d="M37.5494505,56.3265306 C38.456044,56.3265306 39.1813187,55.6530612 39.1813187,54.8112245 L39.1813187,51.4591837 C39.1813187,50.6173469 38.456044,49.9438776 37.5494505,49.9438776 C36.6428571,49.9438776 35.9175824,50.6173469 35.9175824,51.4591837 L35.9175824,54.8112245 C35.9175824,55.6530612 36.6428571,56.3265306 37.5494505,56.3265306 Z"></path>
                        <path d="M10.9615385,66.7040816 C11.8681319,66.7040816 12.5934066,66.0306122 12.5934066,65.1887755 L12.5934066,61.8214286 C12.5934066,60.9795918 11.8681319,60.3061224 10.9615385,60.3061224 C10.0549451,60.3061224 9.32967033,60.9795918 9.32967033,61.8214286 L9.32967033,65.1887755 C9.32967033,66.0153061 10.0549451,66.7040816 10.9615385,66.7040816 Z"></path>
                        <path d="M19.8296703,66.7040816 C20.7362637,66.7040816 21.4615385,66.0306122 21.4615385,65.1887755 L21.4615385,61.8214286 C21.4615385,60.9795918 20.7362637,60.3061224 19.8296703,60.3061224 C18.9230769,60.3061224 18.1978022,60.9795918 18.1978022,61.8214286 L18.1978022,65.1887755 C18.1978022,66.0153061 18.9230769,66.7040816 19.8296703,66.7040816 Z"></path>
                        <path d="M28.6813187,66.7040816 C29.5879121,66.7040816 30.3131868,66.0306122 30.3131868,65.1887755 L30.3131868,61.8214286 C30.3131868,60.9795918 29.5879121,60.3061224 28.6813187,60.3061224 C27.7747253,60.3061224 27.0494505,60.9795918 27.0494505,61.8214286 L27.0494505,65.1887755 C27.0494505,66.0153061 27.7912088,66.7040816 28.6813187,66.7040816 Z"></path>
                        <path d="M37.5494505,66.7040816 C38.456044,66.7040816 39.1813187,66.0306122 39.1813187,65.1887755 L39.1813187,61.8214286 C39.1813187,60.9795918 38.456044,60.3061224 37.5494505,60.3061224 C36.6428571,60.3061224 35.9175824,60.9795918 35.9175824,61.8214286 L35.9175824,65.1887755 C35.9175824,66.0153061 36.6428571,66.7040816 37.5494505,66.7040816 Z"></path>
                    </g>
                </g>
            </g>
        </g>
    </g>
</svg>

<svg xmlns="http://www.w3.org/2000/svg" width="75" height="75" viewBox="0 0 75 75">
    <g fill="#DBDFE4" fill-rule="nonzero">
        <path d="M73.368 18.566H48.38V1.516C48.38.672 47.654 0 46.747 0H1.764C.857 0 .132.673.132 1.515v71.94c0 .84.725 1.514 1.632 1.514h71.604c.907 0 1.632-.673 1.632-1.515V20.082c0-.842-.725-1.516-1.632-1.516zm-28.253 1.516v51.872H3.395V3.031h41.72v17.05zm26.621 51.857H48.38V21.582h23.357v50.357z"/>
        <path d="M54.742 29.28h10.632c.906 0 1.631-.673 1.631-1.515 0-.842-.725-1.515-1.631-1.515H54.742c-.907 0-1.632.673-1.632 1.515 0 .827.725 1.516 1.632 1.516zM54.742 36.888h10.632c.906 0 1.631-.674 1.631-1.516 0-.841-.725-1.515-1.631-1.515H54.742c-.907 0-1.632.674-1.632 1.515 0 .842.725 1.516 1.632 1.516zM54.742 44.48h10.632c.906 0 1.631-.674 1.631-1.516s-.725-1.515-1.631-1.515H54.742c-.907 0-1.632.673-1.632 1.515 0 .842.725 1.516 1.632 1.516zM54.742 52.087h10.632c.906 0 1.631-.674 1.631-1.516 0-.841-.725-1.515-1.631-1.515H54.742c-.907 0-1.632.674-1.632 1.515 0 .842.725 1.516 1.632 1.516zM54.742 59.679h10.632c.906 0 1.631-.674 1.631-1.516s-.725-1.515-1.631-1.515H54.742c-.907 0-1.632.673-1.632 1.515 0 .827.725 1.516 1.632 1.516zM54.742 67.286h10.632c.906 0 1.631-.674 1.631-1.516 0-.841-.725-1.515-1.631-1.515H54.742c-.907 0-1.632.674-1.632 1.515 0 .842.725 1.516 1.632 1.516zM10.962 14.847c.906 0 1.631-.674 1.631-1.515V9.98c0-.842-.725-1.516-1.631-1.516-.907 0-1.632.674-1.632 1.516v3.352c0 .841.725 1.515 1.632 1.515zM19.83 14.847c.906 0 1.632-.674 1.632-1.515V9.98c0-.842-.726-1.516-1.632-1.516-.907 0-1.632.674-1.632 1.516v3.352c0 .841.725 1.515 1.632 1.515zM28.681 14.847c.907 0 1.632-.674 1.632-1.515V9.98c0-.842-.725-1.516-1.632-1.516-.906 0-1.632.674-1.632 1.516v3.352c0 .841.742 1.515 1.632 1.515zM37.55 14.847c.906 0 1.631-.674 1.631-1.515V9.98c0-.842-.725-1.516-1.632-1.516-.906 0-1.631.674-1.631 1.516v3.352c0 .841.725 1.515 1.631 1.515zM10.962 25.224c.906 0 1.631-.673 1.631-1.515v-3.367c0-.842-.725-1.515-1.631-1.515-.907 0-1.632.673-1.632 1.515v3.367c0 .827.725 1.515 1.632 1.515zM19.83 25.224c.906 0 1.632-.673 1.632-1.515v-3.367c0-.842-.726-1.515-1.632-1.515-.907 0-1.632.673-1.632 1.515v3.367c0 .827.725 1.515 1.632 1.515zM28.681 25.224c.907 0 1.632-.673 1.632-1.515v-3.367c0-.842-.725-1.515-1.632-1.515-.906 0-1.632.673-1.632 1.515v3.367c0 .827.742 1.515 1.632 1.515zM37.55 25.224c.906 0 1.631-.673 1.631-1.515v-3.367c0-.842-.725-1.515-1.632-1.515-.906 0-1.631.673-1.631 1.515v3.367c0 .827.725 1.515 1.631 1.515zM10.962 35.587c.906 0 1.631-.674 1.631-1.516V30.72c0-.841-.725-1.515-1.631-1.515-.907 0-1.632.674-1.632 1.515v3.352c0 .842.725 1.516 1.632 1.516zM19.83 35.587c.906 0 1.632-.674 1.632-1.516V30.72c0-.841-.726-1.515-1.632-1.515-.907 0-1.632.674-1.632 1.515v3.352c0 .842.725 1.516 1.632 1.516zM28.681 35.587c.907 0 1.632-.674 1.632-1.516V30.72c0-.841-.725-1.515-1.632-1.515-.906 0-1.632.674-1.632 1.515v3.352c0 .842.742 1.516 1.632 1.516zM37.55 35.587c.906 0 1.631-.674 1.631-1.516V30.72c0-.841-.725-1.515-1.632-1.515-.906 0-1.631.674-1.631 1.515v3.352c0 .842.725 1.516 1.631 1.516zM10.962 45.964c.906 0 1.631-.673 1.631-1.515v-3.352c0-.842-.725-1.515-1.631-1.515-.907 0-1.632.673-1.632 1.515v3.352c0 .827.725 1.515 1.632 1.515zM19.83 45.964c.906 0 1.632-.673 1.632-1.515v-3.352c0-.842-.726-1.515-1.632-1.515-.907 0-1.632.673-1.632 1.515v3.352c0 .827.725 1.515 1.632 1.515zM28.681 45.964c.907 0 1.632-.673 1.632-1.515v-3.352c0-.842-.725-1.515-1.632-1.515-.906 0-1.632.673-1.632 1.515v3.352c0 .827.742 1.515 1.632 1.515zM37.55 45.964c.906 0 1.631-.673 1.631-1.515v-3.352c0-.842-.725-1.515-1.632-1.515-.906 0-1.631.673-1.631 1.515v3.352c0 .827.725 1.515 1.631 1.515zM10.962 56.327c.906 0 1.631-.674 1.631-1.516V51.46c0-.842-.725-1.515-1.631-1.515-.907 0-1.632.673-1.632 1.515v3.352c0 .842.725 1.516 1.632 1.516zM19.83 56.327c.906 0 1.632-.674 1.632-1.516V51.46c0-.842-.726-1.515-1.632-1.515-.907 0-1.632.673-1.632 1.515v3.352c0 .842.725 1.516 1.632 1.516zM28.681 56.327c.907 0 1.632-.674 1.632-1.516V51.46c0-.842-.725-1.515-1.632-1.515-.906 0-1.632.673-1.632 1.515v3.352c0 .842.742 1.516 1.632 1.516zM37.55 56.327c.906 0 1.631-.674 1.631-1.516V51.46c0-.842-.725-1.515-1.632-1.515-.906 0-1.631.673-1.631 1.515v3.352c0 .842.725 1.516 1.631 1.516zM10.962 66.704c.906 0 1.631-.673 1.631-1.515V61.82c0-.841-.725-1.515-1.631-1.515-.907 0-1.632.674-1.632 1.515v3.368c0 .826.725 1.515 1.632 1.515zM19.83 66.704c.906 0 1.632-.673 1.632-1.515V61.82c0-.841-.726-1.515-1.632-1.515-.907 0-1.632.674-1.632 1.515v3.368c0 .826.725 1.515 1.632 1.515zM28.681 66.704c.907 0 1.632-.673 1.632-1.515V61.82c0-.841-.725-1.515-1.632-1.515-.906 0-1.632.674-1.632 1.515v3.368c0 .826.742 1.515 1.632 1.515zM37.55 66.704c.906 0 1.631-.673 1.631-1.515V61.82c0-.841-.725-1.515-1.632-1.515-.906 0-1.631.674-1.631 1.515v3.368c0 .826.725 1.515 1.631 1.515z"/>
    </g>
</svg>
